static/img/kroki/65b43791c1ce3f9e6c17d3561a7a99f3.svg

<?xml version="1.0" encoding="us-ascii" standalone="no"?><svg xmlns="http://www.w3.org/2000/svg" xmlns:xlink="http://www.w3.org/1999/xlink" contentStyleType="text/css" height="152px" preserveAspectRatio="none" style="width:427px;height:152px;" version="1.1" viewBox="0 0 427 152" width="427px" zoomAndPan="magnify"><defs/><g><!--class aws_efs_access_point--><g id="elem_aws_efs_access_point"><rect codeLine="22" fill="#3D176E" height="39.7891" id="aws_efs_access_point" rx="2.5" ry="2.5" style="stroke:#000D19;stroke-width:0.5;" width="221" x="7" y="106.79"/><ellipse cx="22" cy="126.6845" fill="#ADD1B2" rx="11" ry="11" style="stroke:#181818;stroke-width:1.0;"/><path d="M24.9688,132.3252 Q24.3906,132.622 23.75,132.7627 Q23.1094,132.9189 22.4063,132.9189 Q19.9063,132.9189 18.5781,131.2783 Q17.2656,129.622 17.2656,126.497 Q17.2656,123.372 18.5781,121.7158 Q19.9063,120.0595 22.4063,120.0595 Q23.1094,120.0595 23.75,120.2158 Q24.4063,120.372 24.9688,120.6689 L24.9688,123.3877 Q24.3438,122.8095 23.75,122.5439 Q23.1563,122.2627 22.5313,122.2627 Q21.1875,122.2627 20.5,123.3408 Q19.8125,124.4033 19.8125,126.497 Q19.8125,128.5908 20.5,129.6689 Q21.1875,130.7314 22.5313,130.7314 Q23.1563,130.7314 23.75,130.4658 Q24.3438,130.1845 24.9688,129.6064 L24.9688,132.3252 Z " fill="#000000"/><text fill="#D9B8FF" font-family="Helvetica" font-size="17" lengthAdjust="spacing" textLength="179" x="41" y="132.5698">aws_efs_access_point</text></g><!--class aws_efs_file_system--><g id="elem_aws_efs_file_system"><rect codeLine="24" fill="#3D176E" height="39.7891" id="aws_efs_file_system" rx="2.5" ry="2.5" style="stroke:#000D19;stroke-width:0.5;" width="212" x="123.5" y="7"/><ellipse cx="138.5" cy="26.8945" fill="#ADD1B2" rx="11" ry="11" style="stroke:#181818;stroke-width:1.0;"/><path d="M141.4688,32.5352 Q140.8906,32.832 140.25,32.9727 Q139.6094,33.1289 138.9063,33.1289 Q136.4063,33.1289 135.0781,31.4883 Q133.7656,29.832 133.7656,26.707 Q133.7656,23.582 135.0781,21.9258 Q136.4063,20.2695 138.9063,20.2695 Q139.6094,20.2695 140.25,20.4258 Q140.9063,20.582 141.4688,20.8789 L141.4688,23.5977 Q140.8438,23.0195 140.25,22.7539 Q139.6563,22.4727 139.0313,22.4727 Q137.6875,22.4727 137,23.5508 Q136.3125,24.6133 136.3125,26.707 Q136.3125,28.8008 137,29.8789 Q137.6875,30.9414 139.0313,30.9414 Q139.6563,30.9414 140.25,30.6758 Q140.8438,30.3945 141.4688,29.8164 L141.4688,32.5352 Z " fill="#000000"/><text fill="#D9B8FF" font-family="Helvetica" font-size="17" lengthAdjust="spacing" textLength="170" x="157.5" y="32.7798">aws_efs_file_system</text></g><!--class aws_kms_key--><g id="elem_aws_kms_key"><rect codeLine="26" fill="#3D176E" height="39.7891" id="aws_kms_key" rx="2.5" ry="2.5" style="stroke:#000D19;stroke-width:0.5;" width="158" x="262.5" y="106.79"/><ellipse cx="277.5" cy="126.6845" fill="#ADD1B2" rx="11" ry="11" style="stroke:#181818;stroke-width:1.0;"/><path d="M280.4688,132.3252 Q279.8906,132.622 279.25,132.7627 Q278.6094,132.9189 277.9063,132.9189 Q275.4063,132.9189 274.0781,131.2783 Q272.7656,129.622 272.7656,126.497 Q272.7656,123.372 274.0781,121.7158 Q275.4063,120.0595 277.9063,120.0595 Q278.6094,120.0595 279.25,120.2158 Q279.9063,120.372 280.4688,120.6689 L280.4688,123.3877 Q279.8438,122.8095 279.25,122.5439 Q278.6563,122.2627 278.0313,122.2627 Q276.6875,122.2627 276,123.3408 Q275.3125,124.4033 275.3125,126.497 Q275.3125,128.5908 276,129.6689 Q276.6875,130.7314 278.0313,130.7314 Q278.6563,130.7314 279.25,130.4658 Q279.8438,130.1845 280.4688,129.6064 L280.4688,132.3252 Z " fill="#000000"/><text fill="#D9B8FF" font-family="Helvetica" font-size="17" lengthAdjust="spacing" textLength="116" x="296.5" y="132.5698">aws_kms_key</text></g><!--link aws_efs_file_system to aws_efs_access_point--><g id="link_aws_efs_file_system_aws_efs_access_point"><path codeLine="28" d="M207.37,47.22 C187.74,64.36 163.7186,85.3226 144.0986,102.4626 " fill="none" id="aws_efs_file_system-to-aws_efs_access_point" style="stroke:#1A83AF;stroke-width:2.0;"/><polygon fill="#1A83AF" points="139.58,106.41,148.9895,103.5012,143.3455,103.1205,143.7263,97.4764,139.58,106.41" style="stroke:#1A83AF;stroke-width:2.0;"/></g><!--link aws_efs_file_system to aws_kms_key--><g id="link_aws_efs_file_system_aws_kms_key"><path codeLine="29" d="M251.63,47.22 C271.26,64.36 295.2814,85.3226 314.9014,102.4626 " fill="none" id="aws_efs_file_system-to-aws_kms_key" style="stroke:#1A83AF;stroke-width:2.0;"/><polygon fill="#1A83AF" points="319.42,106.41,315.2737,97.4764,315.6545,103.1205,310.0105,103.5012,319.42,106.41" style="stroke:#1A83AF;stroke-width:2.0;"/></g><!--SRC=[ZPBBQiCm44Nt-Gg1ru6ueOspAJY1q6v2QRehnOojKI9iIMQarBYb_rxdqQBAUNIXpToZkNU6sKYE35NjMgPGvKXsO4kfQo1GB2KopTnKXbWa18Zn91GNHhkhm18KiWUitj790aBYPIEBKgErxCQJPb2KQp9RpG_j7O6sdOJQUTIy0cjJvqZcMuTU63xD4o52CcmQZNaykSCUPeWZ7P7HQCJZQOXSjReuzo-naX_8OdzfI-Em5xDdiQSkfjmHNiZUe3_wsOnFmBdKQtRhrPuFcKWZ_QclDi1DiwC5LDQtiGu9ZMjhdFUcmcd2nUGa_7WEBdQROz3O38NDe2Ywkybg8xLZduElG1QomiosNLiLgANg7hRxwYbw-1h5QJ9E5s_3-vDk__jrjFa6]--></g></svg>

<svg xmlns="http://www.w3.org/2000/svg" width="427" height="152" viewBox="0 0 427 152"><rect width="221" height="39.789" x="7" y="106.79" fill="#3D176E" rx="2.5" ry="2.5" style="stroke:#000d19;stroke-width:.5"/><circle cx="22" cy="126.684" r="11" fill="#ADD1B2" style="stroke:#181818;stroke-width:1"/><path d="M24.969 132.325q-.578.297-1.219.438-.64.156-1.344.156-2.5 0-3.828-1.64-1.312-1.657-1.312-4.782t1.312-4.781q1.328-1.656 3.828-1.656.703 0 1.344.156.656.156 1.219.453v2.719q-.625-.579-1.219-.844-.594-.281-1.219-.281-1.343 0-2.031 1.078-.687 1.062-.687 3.156t.687 3.172q.688 1.062 2.031 1.062.625 0 1.219-.265.594-.281 1.219-.86z"/><text x="41" y="132.57" fill="#D9B8FF" font-family="Helvetica" font-size="17" textLength="179">aws_efs_access_point</text><rect width="212" height="39.789" x="123.5" y="7" fill="#3D176E" rx="2.5" ry="2.5" style="stroke:#000d19;stroke-width:.5"/><circle cx="138.5" cy="26.895" r="11" fill="#ADD1B2" style="stroke:#181818;stroke-width:1"/><path d="M141.469 32.535q-.578.297-1.219.438-.64.156-1.344.156-2.5 0-3.828-1.64-1.312-1.657-1.312-4.782t1.312-4.781q1.328-1.656 3.828-1.656.703 0 1.344.156.656.156 1.219.453v2.719q-.625-.578-1.219-.844-.594-.281-1.219-.281-1.344 0-2.031 1.078-.687 1.062-.687 3.156t.687 3.172q.688 1.062 2.031 1.062.625 0 1.219-.265.594-.281 1.219-.86z"/><text x="157.5" y="32.78" fill="#D9B8FF" font-family="Helvetica" font-size="17" textLength="170">aws_efs_file_system</text><rect width="158" height="39.789" x="262.5" y="106.79" fill="#3D176E" rx="2.5" ry="2.5" style="stroke:#000d19;stroke-width:.5"/><circle cx="277.5" cy="126.684" r="11" fill="#ADD1B2" style="stroke:#181818;stroke-width:1"/><path d="M280.469 132.325q-.578.297-1.219.438-.64.156-1.344.156-2.5 0-3.828-1.64-1.312-1.657-1.312-4.782t1.312-4.781q1.328-1.656 3.828-1.656.703 0 1.344.156.656.156 1.219.453v2.719q-.625-.579-1.219-.844-.594-.281-1.219-.281-1.344 0-2.031 1.078-.687 1.062-.687 3.156t.687 3.172q.688 1.062 2.031 1.062.625 0 1.219-.265.594-.281 1.219-.86z"/><text x="296.5" y="132.57" fill="#D9B8FF" font-family="Helvetica" font-size="17" textLength="116">aws_kms_key</text><path fill="none" d="M207.37 47.22c-19.63 17.14-43.651 38.103-63.271 55.243" style="stroke:#1a83af;stroke-width:2"/><path fill="#1A83AF" d="m139.58 106.41 9.41-2.909-5.645-.38.381-5.645z" style="stroke:#1a83af;stroke-width:2"/><path fill="none" d="M251.63 47.22c19.63 17.14 43.651 38.103 63.271 55.243" style="stroke:#1a83af;stroke-width:2"/><path fill="#1A83AF" d="m319.42 106.41-4.146-8.934.38 5.645-5.644.38z" style="stroke:#1a83af;stroke-width:2"/></svg>
